src/lib/packages/icons/src/assets/filled/message-text-times.svg

<svg xmlns="http://www.w3.org/2000/svg" width="24" height="24" fill="none"><path fill="currentColor" d="M18 3H6C4 3 3 4 3 6v15l3-3h7.747c.234 0 .31-.224.295-.339a5.003 5.003 0 0 1-.041-.661c0-2.76 2.24-5 5-5a5.08 5.08 0 0 1 1.597.258.3.3 0 0 0 .402-.278V6c0-2-1-3-3-3Zm-5 10.25H8a.75.75 0 0 1 0-1.5h5a.75.75 0 0 1 0 1.5Zm3-4H8a.75.75 0 0 1 0-1.5h8a.75.75 0 0 1 0 1.5Zm5.53 9.22a.75.75 0 0 1-1.06 1.061L19 18.061l-1.47 1.47a.748.748 0 0 1-1.06 0 .75.75 0 0 1 0-1.061L17.94 17l-1.47-1.47a.75.75 0 1 1 1.061-1.061l1.47 1.47 1.47-1.47a.75.75 0 0 1 1.061 1.061L20.062 17l1.468 1.47Z"/></svg>

<svg width="24" height="24" viewBox="0 0 24 24" fill="none" xmlns="http://www.w3.org/2000/svg">
<path d="M18 3H6C4 3 3 4 3 6V21L6 18H13.7471C13.9811 18 14.057 17.776 14.042 17.661C14.013 17.444 14.001 17.222 14.001 17C14.001 14.24 16.241 12 19.001 12C19.558 12 20.0969 12.0921 20.5979 12.2581C20.7959 12.3241 21.001 12.188 21.001 11.979V6C21 4 20 3 18 3ZM13 13.25H8C7.586 13.25 7.25 12.914 7.25 12.5C7.25 12.086 7.586 11.75 8 11.75H13C13.414 11.75 13.75 12.086 13.75 12.5C13.75 12.914 13.414 13.25 13 13.25ZM16 9.25H8C7.586 9.25 7.25 8.914 7.25 8.5C7.25 8.086 7.586 7.75 8 7.75H16C16.414 7.75 16.75 8.086 16.75 8.5C16.75 8.914 16.414 9.25 16 9.25ZM21.53 18.47C21.823 18.763 21.823 19.238 21.53 19.531C21.384 19.677 21.192 19.751 21 19.751C20.808 19.751 20.616 19.678 20.47 19.531L19 18.061L17.53 19.531C17.384 19.677 17.192 19.751 17 19.751C16.808 19.751 16.616 19.678 16.47 19.531C16.177 19.238 16.177 18.763 16.47 18.47L17.9399 17L16.47 15.53C16.177 15.237 16.177 14.762 16.47 14.469C16.763 14.176 17.238 14.176 17.531 14.469L19.001 15.939L20.4709 14.469C20.7639 14.176 21.239 14.176 21.532 14.469C21.825 14.762 21.825 15.237 21.532 15.53L20.062 17L21.53 18.47Z" fill="currentColor"/>
</svg>
